Newaita/actions/32/align-vertical-center.svg

<?xml version="1.0" encoding="UTF-8"?>
<svg xmlns="http://www.w3.org/2000/svg" xmlns:xlink="http://www.w3.org/1999/xlink" width="32pt" height="32pt" viewBox="0 0 32 32" version="1.1">
<g id="surface1">
<path style=" stroke:none;fill-rule:nonzero;fill:rgb(100%,43.921569%,26.274511%);fill-opacity:0.988235;" d="M 3.636719 15.132812 C 3.089844 15.132812 2.644531 15.578125 2.644531 16.125 C 2.644531 16.675781 3.089844 17.117188 3.636719 17.117188 L 5.953125 17.117188 L 5.953125 15.132812 Z M 12.570312 15.132812 L 12.570312 17.117188 L 19.183594 17.117188 L 19.183594 15.132812 Z M 25.800781 15.132812 L 25.800781 17.117188 L 28.113281 17.117188 C 28.664062 17.117188 29.105469 16.675781 29.105469 16.125 C 29.105469 15.578125 28.664062 15.132812 28.113281 15.132812 Z M 25.800781 15.132812 "/>
<path style=" stroke:none;fill-rule:nonzero;fill:rgb(25.882354%,25.882354%,25.882354%);fill-opacity:0.988235;" d="M 27.785156 19.433594 C 27.785156 20.535156 26.898438 21.417969 25.800781 21.417969 L 19.183594 21.417969 C 18.085938 21.417969 17.199219 20.535156 17.199219 19.433594 L 17.199219 12.820312 C 17.199219 11.71875 18.085938 10.835938 19.183594 10.835938 L 25.800781 10.835938 C 26.898438 10.835938 27.785156 11.71875 27.785156 12.820312 Z M 25.800781 18.773438 L 25.800781 13.480469 C 25.800781 13.113281 25.503906 12.820312 25.136719 12.820312 L 19.84375 12.820312 C 19.480469 12.820312 19.183594 13.113281 19.183594 13.480469 L 19.183594 18.773438 C 19.183594 19.140625 19.480469 19.433594 19.84375 19.433594 L 25.136719 19.433594 C 25.503906 19.433594 25.800781 19.140625 25.800781 18.773438 Z M 25.800781 18.773438 "/>
<path style=" stroke:none;fill-rule:nonzero;fill:rgb(25.882354%,25.882354%,25.882354%);fill-opacity:0.988235;" d="M 12.570312 4.550781 C 13.667969 4.550781 14.554688 5.433594 14.554688 6.535156 L 14.554688 25.71875 C 14.554688 26.816406 13.667969 27.703125 12.570312 27.703125 L 5.953125 27.703125 C 4.855469 27.703125 3.96875 26.816406 3.96875 25.71875 L 3.96875 6.535156 C 3.96875 5.433594 4.855469 4.550781 5.953125 4.550781 Z M 11.90625 6.535156 L 6.613281 6.535156 C 6.25 6.535156 5.953125 6.828125 5.953125 7.195312 L 5.953125 25.058594 C 5.953125 25.421875 6.25 25.71875 6.613281 25.71875 L 11.90625 25.71875 C 12.273438 25.71875 12.570312 25.421875 12.570312 25.058594 L 12.570312 7.195312 C 12.570312 6.828125 12.273438 6.535156 11.90625 6.535156 Z M 11.90625 6.535156 "/>
</g>
</svg>

<svg xmlns="http://www.w3.org/2000/svg" width="32pt" height="32pt" viewBox="0 0 32 32"><g fill-opacity=".988"><path d="M3.637 15.133a.991.991 0 1 0 0 1.984h2.316v-1.984zm8.933 0v1.984h6.614v-1.984zm13.23 0v1.984h2.313c.551 0 .992-.441.992-.992a.991.991 0 0 0-.992-.992zm0 0" fill="#ff7043"/><path d="M27.785 19.434a1.98 1.98 0 0 1-1.984 1.984h-6.617a1.98 1.98 0 0 1-1.985-1.984V12.82a1.98 1.98 0 0 1 1.985-1.984H25.8a1.98 1.98 0 0 1 1.984 1.984zm-1.984-.66V13.48a.66.66 0 0 0-.664-.66h-5.293a.66.66 0 0 0-.66.66v5.293c0 .368.296.66.66.66h5.293a.66.66 0 0 0 .664-.66zm0 0M12.57 4.55a1.98 1.98 0 0 1 1.985 1.985V25.72a1.982 1.982 0 0 1-1.985 1.984H5.953A1.982 1.982 0 0 1 3.97 25.72V6.535a1.98 1.98 0 0 1 1.984-1.984zm-.664 1.985H6.613a.66.66 0 0 0-.66.66V25.06c0 .363.297.66.66.66h5.293a.663.663 0 0 0 .664-.66V7.195a.66.66 0 0 0-.664-.66zm0 0" fill="#424242"/></g></svg>
